app/assets/images/heroicons/micro/phone-arrow-down-left.svg

<svg width="16" height="16" viewBox="0 0 16 16" fill="none" xmlns="http://www.w3.org/2000/svg">
<path d="M4.92241 6.75232L3.85462 7.28621C4.59083 9.58911 6.4109 11.4092 8.71379 12.1454L9.24768 11.0776C9.44195 10.6891 9.86482 10.4704 10.2942 10.5364L13.1521 10.9761C13.6399 11.0512 14 11.4709 14 11.9645V13C14 13.5523 13.5523 14 13 14H11C10.2912 14 9.60064 13.9179 8.93763 13.7624C5.62265 12.985 3.01505 10.3773 2.23758 7.06237C2.08208 6.39936 2 5.70879 2 5V3C2 2.44772 2.44772 2 3 2H4.03552C4.52909 2 4.94884 2.36011 5.02389 2.84794L5.46357 5.70584C5.52962 6.13518 5.31094 6.55806 4.92241 6.75232Z" fill="#0F172A"/>
<path d="M11.5607 5.5L13.7803 3.28033C14.0732 2.98744 14.0732 2.51256 13.7803 2.21967C13.4874 1.92678 13.0126 1.92678 12.7197 2.21967L10.5 4.43934V2.75C10.5 2.33579 10.1642 2 9.75 2C9.33579 2 9 2.33579 9 2.75V6.25C9 6.66421 9.33579 7 9.75 7H13.25C13.6642 7 14 6.66421 14 6.25C14 5.83579 13.6642 5.5 13.25 5.5H11.5607Z" fill="#0F172A"/>
</svg>

<svg xmlns="http://www.w3.org/2000/svg" viewBox="0 0 16 16" fill="currentColor" aria-hidden="true" data-slot="icon">
  <path d="m4.922 6.752-1.067.534a7.52 7.52 0 0 0 4.859 4.86l.534-1.068a1 1 0 0 1 1.046-.542l2.858.44a1 1 0 0 1 .848.988V13a1 1 0 0 1-1 1h-2c-.709 0-1.4-.082-2.062-.238a9.012 9.012 0 0 1-6.7-6.7A9.024 9.024 0 0 1 2 5V3a1 1 0 0 1 1-1h1.036a1 1 0 0 1 .988.848l.44 2.858a1 1 0 0 1-.542 1.046Z"/>
  <path d="m11.56 5.5 2.22-2.22a.75.75 0 0 0-1.06-1.06L10.5 4.44V2.75a.75.75 0 0 0-1.5 0v3.5c0 .414.336.75.75.75h3.5a.75.75 0 0 0 0-1.5h-1.69Z"/>
</svg>
